X:272
T: Der bestrafte Fhnrich (35b), S. 122f
N: T0161
O: Luxemburg
S: Singendes Volk, Esch-Alzette 1937 posth.]
N: Heffingen, hhh Nikolaus Ewen, 9.9.1934
R: Liebeslieder]
M: 4/4
L: 1/16
K: G
D4 | D2G2G4G4G2G2 | G4G2A2B4A2G2 | A8z4
G4 | f2A2A4A4A2A2 | A4A2B2d4c2B2 | B4A4z4
d4 | B3BB2B2B2d2c2
B2 | A3dd2ded4
D4 | G4A4d3cB2A2 | B4A4G4

